X:28
T:Prince of Wales Strathspey,The. 2voices. Dix.28
M:C|
L:1/8
Q:1/4=110
S:Anon. MS dated 1811, from Dixon collection, Holton le Moor, Lincs.
R:strathspey
N:Repeat signs added at start
O:England;Lincolnshire;Holton le Moor
Z:vmp.R.Greig 2012 <http://www.village-music-project.org.uk>
K:Bb
[V:1]|:D/E/|F>GF>D B,D/E/ FD|F>GF>D G/F/E/D/ CD/E/|F>GF>D F>G B>c|dB e/d/c/B/ FBB:|
[V:2][K:Bb clef=bass]|:z|B,,2B,2B,,2B,2|D2B,2C2C,2|D,2B,,2D,2D,2|B,2F,2D,2B,,:|
[V:1]|:f>B e/d/c/B/ F>B D>g|fB e/d/c/B/ FB Dg|cd/e/ Fe dBBg|cd/e/ Fe dBBg|
[V:2]|:D,2B,,2D,2B,2|D2B,2E2C2|D2B,2D,2B,2|F,2A,2B,2B,,2|
[V:1]fB e/d/c/B/ FBDB|f>B e/d/c/B/ g>cc>g|d>fe>g d>fc>d|F>GB>c dBB:|
[V:2]D,2B,,2D,2B,,2|D,2B,2E2C2|B,2E,2B,2F,2|D,2F,2B,,2B,,:|

